images_sukapura_svg/cmd/32/optimizetable.svg

<svg viewBox="0 0 32 32" xmlns="http://www.w3.org/2000/svg" xmlns:xlink="http://www.w3.org/1999/xlink"><linearGradient id="a" gradientUnits="userSpaceOnUse" x1="-6.160697" x2="-6.063133" y1="37.650518" y2="25.56978"><stop offset="0" stop-color="#2a9240"/><stop offset="1" stop-color="#32d74b"/></linearGradient><linearGradient id="b" gradientUnits="userSpaceOnUse" x1="15" x2="15" y1="4" y2="28"><stop offset="0" stop-color="#efefef"/><stop offset=".33333334" stop-color="#fff"/><stop offset=".8888889" stop-color="#fff"/><stop offset="1" stop-color="#f5f5f5"/></linearGradient><filter id="c" color-interpolation-filters="sRGB" height="1.116265" width="1.123983" x="-.061992" y="-.058132"><feGaussianBlur stdDeviation=".61991525"/></filter><path d="m4 4h24v25.59322h-24z" filter="url(#c)" opacity=".15" stroke-width="1.032659"/><path d="m4 3c-.554 0-1 .446-1 1v24c0 .554.446 1 1 1h24c.554 0 1-.446 1-1v-24c0-.554-.446-1-1-1zm0 1h24v9 1 4 1 4 1 4h-6-1-5-1-5-1-5v-4-1-4-1-4-1z" fill="#69696e"/><path d="m4 4h24v24h-24z" fill="url(#b)"/><path d="m3 3h26v6h-26z" fill="#0a84ff"/><path d="m9 9v4h-5v1h5v4h-5v1h5v4h-5v1h5v4h1v-4h5v4h1v-4h5v4h1v-4h6v-1h-6v-4h6v-1h-6v-4h6v-1h-6v-4h-1v4h-5v-4h-1v4h-5v-4zm1 5h5v4h-5zm6 0h5v4h-5zm-6 5h5v4h-5zm6 0h5v4h-5z" fill="#bababa"/><path d="m4 3c-.554 0-1 .446-1 1v5h1 5 1 5 1 5 1 6 1v-5c0-.554-.446-1-1-1zm0 1h5v4h-5zm6 0h5v4h-5zm6 0h5v4h-5zm6 0h6v4h-6z" fill="#0040dd"/><path d="m29 18.189453c-.294548.133563-.55799.325661-.769531.578125l-6.632813 7.419922-1.882812-1.841797c-.876206-.856813-2.209715-.858556-3.085938-.001953a1.0039121 1.0039121 0 0 0 0 .001953c-.875279.855818-.8753 2.222264 0 3.078125l1.611328 1.576172h6.628907l4.130859-4.617188z" fill="#fff" fill-opacity=".784314"/><path d="m30.008379 19.015652c-.11263-.02069-.229582-.02189-.349814.0022-.256226.05414-.492352.195183-.658476.393444l-7.352978 8.22655-2.633903-2.575268c-.440541-.430791-1.242149-.430757-1.682772 0-.440564.430768-.440599 1.214497 0 1.645311l3.511871 3.433689.91455.858422.804804-.929957 8.194364-9.156507c.581205-.618654.04074-1.75309-.747646-1.897919z" fill="url(#a)"/></svg>

<?xml version="1.0" encoding="UTF-8" standalone="no"?>
<svg
   xmlns:dc="http://purl.org/dc/elements/1.1/"
   xmlns:cc="http://creativecommons.org/ns#"
   xmlns:rdf="http://www.w3.org/1999/02/22-rdf-syntax-ns#"
   xmlns:svg="http://www.w3.org/2000/svg"
   xmlns="http://www.w3.org/2000/svg"
   xmlns:xlink="http://www.w3.org/1999/xlink"
   xmlns:sodipodi="http://sodipodi.sourceforge.net/DTD/sodipodi-0.dtd"
   xmlns:inkscape="http://www.inkscape.org/namespaces/inkscape"
   viewBox="0 0 32 32"
   version="1.1"
   id="svg994"
   sodipodi:docname="optimizetable.svg"
   inkscape:version="0.92.3 (unknown)">
  <metadata
     id="metadata1000">
    <rdf:RDF>
      <cc:Work
         rdf:about="">
        <dc:format>image/svg+xml</dc:format>
        <dc:type
           rdf:resource="http://purl.org/dc/dcmitype/StillImage" />
        <dc:title></dc:title>
      </cc:Work>
    </rdf:RDF>
  </metadata>
  <defs
     id="defs998">
    <linearGradient
       gradientTransform="translate(-31.118644,6.6101695)"
       id="a-36"
       gradientUnits="userSpaceOnUse"
       x1="14"
       x2="13.79661"
       y1="22"
       y2="2.1355929">
      <stop
         offset="0"
         stop-color="#0040dd"
         id="stop1586"
         style="stop-color:#2a9240;stop-opacity:1" />
      <stop
         offset="1"
         stop-color="#0a84ff"
         id="stop1588"
         style="stop-color:#32d74b;stop-opacity:1" />
    </linearGradient>
    <linearGradient
       inkscape:collect="always"
       xlink:href="#a-36"
       id="linearGradient1620"
       x1="24.957947"
       y1="31.040348"
       x2="25.055511"
       y2="18.95961"
       gradientUnits="userSpaceOnUse" />
  </defs>
  <sodipodi:namedview
     pagecolor="#ffffff"
     bordercolor="#666666"
     borderopacity="1"
     objecttolerance="10"
     gridtolerance="10"
     guidetolerance="10"
     inkscape:pageopacity="0"
     inkscape:pageshadow="2"
     inkscape:window-width="1366"
     inkscape:window-height="699"
     id="namedview996"
     showgrid="true"
     inkscape:snap-global="false"
     inkscape:zoom="10.429825"
     inkscape:cx="35.2746"
     inkscape:cy="8.1953083"
     inkscape:window-x="0"
     inkscape:window-y="0"
     inkscape:window-maximized="1"
     inkscape:current-layer="svg994">
    <inkscape:grid
       type="xygrid"
       id="grid1582" />
  </sodipodi:namedview>
  <linearGradient
     id="a"
     gradientUnits="userSpaceOnUse"
     x1="15"
     x2="15"
     y1="4"
     y2="28">
    <stop
       offset="0"
       stop-color="#efefef"
       id="stop970" />
    <stop
       offset=".33333334"
       stop-color="#fff"
       id="stop972" />
    <stop
       offset=".8888889"
       stop-color="#fff"
       id="stop974" />
    <stop
       offset="1"
       stop-color="#f5f5f5"
       id="stop976" />
  </linearGradient>
  <filter
     id="b"
     color-interpolation-filters="sRGB"
     height="1.116265"
     width="1.123983"
     x="-.061992"
     y="-.058132">
    <feGaussianBlur
       stdDeviation=".61991525"
       id="feGaussianBlur979" />
  </filter>
  <path
     d="m4 4h24v25.59322h-24z"
     filter="url(#b)"
     opacity=".15"
     stroke-width="1.032659"
     id="path982" />
  <path
     d="m4 3c-.554 0-1 .446-1 1v24c0 .554.446 1 1 1h24c.554 0 1-.446 1-1v-24c0-.554-.446-1-1-1zm0 1h24v9 1 4 1 4 1 4h-6-1-5-1-5-1-5v-4-1-4-1-4-1z"
     fill="#69696e"
     id="path984" />
  <path
     d="m4 4h24v24h-24z"
     fill="url(#a)"
     id="path986" />
  <path
     d="m3 3h26v6h-26z"
     fill="#0a84ff"
     id="path988" />
  <path
     d="m9 9v4h-5v1h5v4h-5v1h5v4h-5v1h5v4h1v-4h5v4h1v-4h5v4h1v-4h6v-1h-6v-4h6v-1h-6v-4h6v-1h-6v-4h-1v4h-5v-4h-1v4h-5v-4zm1 5h5v4h-5zm6 0h5v4h-5zm-6 5h5v4h-5zm6 0h5v4h-5z"
     fill="#bababa"
     id="path990" />
  <path
     d="m4 3c-.554 0-1 .446-1 1v5h1 5 1 5 1 5 1 6 1v-5c0-.554-.446-1-1-1zm0 1h5v4h-5zm6 0h5v4h-5zm6 0h5v4h-5zm6 0h6v4h-6z"
     fill="#0040dd"
     id="path992" />
  <path
     style="fill:#ffffff;fill-opacity:0.78431374"
     d="M 29 18.189453 C 28.705452 18.323016 28.44201 18.515114 28.230469 18.767578 L 21.597656 26.1875 L 19.714844 24.345703 C 18.838638 23.48889 17.505129 23.487147 16.628906 24.34375 A 1.0039121 1.0039121 0 0 0 16.628906 24.345703 C 15.753627 25.201521 15.753606 26.567967 16.628906 27.423828 L 18.240234 29 L 24.869141 29 L 29 24.382812 L 29 18.189453 z "
     id="path1545" />
  <path
     inkscape:connector-curvature="0"
     style="fill:url(#linearGradient1620);fill-opacity:1"
     d="m 30.008379,19.015652 c -0.11263,-0.02069 -0.229582,-0.02189 -0.349814,0.0022 -0.256226,0.05414 -0.492352,0.195183 -0.658476,0.393444 l -7.352978,8.22655 -2.633903,-2.575268 c -0.440541,-0.430791 -1.242149,-0.430757 -1.682772,0 -0.440564,0.430768 -0.440599,1.214497 0,1.645311 l 3.511871,3.433689 0.91455,0.858422 0.804804,-0.929957 8.194364,-9.156507 c 0.581205,-0.618654 0.04074,-1.75309 -0.747646,-1.897919 z"
     id="path6" />
</svg>
